; generated by PrusaSlicer 2.2.0-beta+linux-x64 on 2020-02-24 at 12:49:45 UTC


;
;

;
;
; 

; external perimeters extrusion width = 0.45mm
; perimeters extrusion width = 0.45mm
; infill extrusion width = 0.45mm
; solid infill extrusion width = 0.45mm
; top infill extrusion width = 0.40mm
; first layer extrusion width = 0.42mm

M73 P0 R63
M201 X1250 Y1250 Z400 E5000 ; sets maximum accelerations, mm/sec^2
M203 X180 Y180 Z12 E80 ; sets maximum feedrates, mm/sec
M204 P1250 R1250 T1250 ; sets acceleration (P, T) and retract acceleration (R), mm/sec^2
M205 X8.00 Y8.00 Z2.00 E10.00 ; sets the jerk limits, mm/sec
M205 S0 T0 ; sets the minimum extruding and travel feed rate, mm/sec
M107
G90 ; use absolute coordinates
M83 ; extruder relative mode
M104 S170 ; set extruder temp for bed leveling
M140 S60 ; set bed temp
M109 R170 ; wait for bed leveling temp
M190 S60 ; wait for bed temp
G28 ; home all without mesh bed level
G29 ; mesh bed leveling 
M104 S215 ; set extruder temp
G92 E0.0
G1 Y-2.0 X179 F2400
G1 Z3 F720
M109 S215 ; wait for extruder temp

; intro line
G1 X170 F1000
G1 Z0.2 F720
G1 X110.0 E8.0 F900
M73 P0 R63
G1 X40.0 E10.0 F700
G92 E0.0

M221 S95 ; set flow
G21 ; set units to millimeters
G90 ; use absolute coordinates
M83 ; use relative distances for extrusion
M900 K0.2 ; Filament gcode
;BEFORE_LAYER_CHANGE
G92 E0.0
;0.2


G1 Z0.200 F9000.000
;AFTER_LAYER_CHANGE
;0.2
G1 E-3.20000 F4200.00000
G1 Z0.400 F9000.000
G1 X63.003 Y60.990
G1 Z0.200
G1 E3.20000 F2400.00000
M204 S800
G1 F1200.000
G1 X63.613 Y59.870 E0.04000
G1 X64.217 Y59.046 E0.03203
G1 X64.842 Y58.365 E0.02899
G1 X65.551 Y57.741 E0.02962
G1 X66.417 Y57.141 E0.03302
G1 X67.288 Y56.676 E0.03095
G1 X68.238 Y56.302 E0.03202
G1 X69.141 Y56.060 E0.02933
G1 X70.174 Y55.905 E0.03275
G1 X109.242 Y55.873 E1.22494
G1 X110.724 Y56.033 E0.04674
G1 X112.265 Y56.484 E0.05036
G1 X113.655 Y57.184 E0.04879
G1 X114.824 Y58.054 E0.04569
G1 X115.931 Y59.230 E0.05064
G1 X116.737 Y60.465 E0.04623
G1 X117.346 Y61.884 E0.04842
G1 X117.701 Y63.442 E0.05010
G1 X117.777 Y64.570 E0.03546
G1 X117.776 Y115.483 E1.59631
G1 X117.690 Y116.642 E0.03646
G1 X117.426 Y117.857 E0.03897
G1 X116.997 Y119.010 E0.03858
G1 X116.391 Y120.123 E0.03975
G1 X115.778 Y120.961 E0.03256
G1 X115.071 Y121.718 E0.03247
G1 X114.221 Y122.432 E0.03480
G1 X113.417 Y122.958 E0.03012
G1 X112.535 Y123.403 E0.03099
G1 X111.571 Y123.757 E0.03219
G1 X110.540 Y124.001 E0.03324
G1 X109.493 Y124.119 E0.03301
G1 X70.690 Y124.126 E1.21666
G1 X69.553 Y124.017 E0.03581
G1 X68.417 Y123.754 E0.03656
G1 X67.296 Y123.328 E0.03759
G1 X66.303 Y122.789 E0.03542
G1 X65.441 Y122.171 E0.03325
G1 X64.598 Y121.387 E0.03608
G1 X63.896 Y120.540 E0.03452
G1 X63.353 Y119.699 E0.03139
G1 X62.836 Y118.619 E0.03753
G1 X62.493 Y117.563 E0.03481
G1 X62.304 Y116.603 E0.03067
G1 X62.225 Y115.527 E0.03383
G1 X62.224 Y64.516 E1.59941
G1 X62.309 Y63.361 E0.03632
G1 X62.571 Y62.154 E0.03875
G1 X62.982 Y61.046 E0.03702
M204 S1250
G1 E-2.24000 F4200.00000
G1 F7200.000
G1 X63.613 Y59.870 E-0.73987
G1 X63.797 Y59.620 E-0.17213
G1 E-0.04800 F4200.00000
G1 Z0.400 F9000.000
G1 X65.887 Y62.292
G1 Z0.200
G1 E3.20000 F2400.00000
M204 S800
G1 F1200.000
G1 X66.109 Y61.858 E0.01527
G1 X66.387 Y61.416 E0.01636
G1 X66.723 Y60.983 E0.01720
G1 X67.054 Y60.628 E0.01522
G1 X67.445 Y60.279 E0.01645
G1 X67.890 Y59.953 E0.01729
G1 X68.337 Y59.688 E0.01628
G1 X68.782 Y59.476 E0.01546
G1 X69.226 Y59.309 E0.01487
G1 X69.729 Y59.171 E0.01636
G1 X70.171 Y59.090 E0.01407
G1 X70.675 Y59.042 E0.01589
G1 X109.441 Y59.050 E1.21548
G1 X110.049 Y59.126 E0.01923
G1 X110.670 Y59.276 E0.02000
G1 X111.324 Y59.522 E0.02192
G1 X111.894 Y59.818 E0.02014
G1 X112.496 Y60.231 E0.02290
G1 X112.945 Y60.628 E0.01878
G1 X113.333 Y61.049 E0.01794
G1 X113.727 Y61.586 E0.02091
G1 X113.948 Y61.959 E0.01358
G1 X114.113 Y62.293 E0.01167
G1 X114.281 Y62.704 E0.01394
G1 X114.391 Y63.040 E0.01108
G1 X114.504 Y63.498 E0.01478
G1 X114.557 Y63.801 E0.00966
G1 X114.613 Y64.601 E0.02514
G1 X114.613 Y115.398 E1.59269
G1 X114.557 Y116.192 E0.02497
G1 X114.447 Y116.756 E0.01799
G1 X114.229 Y117.435 E0.02238
G1 X113.944 Y118.047 E0.02117
G1 X113.564 Y118.652 E0.02240
G1 X113.110 Y119.204 E0.02241
G1 X112.668 Y119.626 E0.01916
G1 X112.102 Y120.052 E0.02220
G1 X111.835 Y120.217 E0.00985
G1 X111.440 Y120.425 E0.01400
G1 X111.108 Y120.570 E0.01136
G1 X110.774 Y120.691 E0.01111
G1 X110.053 Y120.874 E0.02335
G1 X109.602 Y120.938 E0.01425
G1 X109.214 Y120.963 E0.01220
G1 X70.786 Y120.963 E1.20490
G1 X70.072 Y120.895 E0.02248
G1 X69.391 Y120.741 E0.02190
G1 X68.782 Y120.524 E0.02024
G1 X68.166 Y120.217 E0.02160
G1 X67.669 Y119.894 E0.01858
G1 X67.162 Y119.475 E0.02063
G1 X66.671 Y118.956 E0.02238
G1 X66.273 Y118.414 E0.02111
G1 X66.052 Y118.041 E0.01358
G1 X65.887 Y117.707 E0.01167
G1 X65.719 Y117.296 E0.01394
G1 X65.609 Y116.960 E0.01108
G1 X65.496 Y116.502 E0.01478
G1 X65.443 Y116.199 E0.00966
G1 X65.387 Y115.398 E0.02517
G1 X65.387 Y64.601 E1.59269
G1 X65.443 Y63.808 E0.02494
G1 X65.553 Y63.244 E0.01799
G1 X65.662 Y62.869 E0.01225
G1 X65.865 Y62.348 E0.01755
M204 S1250
G1 X65.514 Y62.210 F9000.000
M204 S800
G1 F1200.000
G1 X65.781 Y61.672 E0.01885
G1 X66.077 Y61.200 E0.01747
G1 X66.435 Y60.738 E0.01832
G1 X66.790 Y60.358 E0.01630
G1 X67.208 Y59.985 E0.01756
G1 X67.682 Y59.638 E0.01843
G1 X68.159 Y59.355 E0.01739
G1 X68.635 Y59.128 E0.01650
G1 X69.110 Y58.950 E0.01592
G1 X69.645 Y58.803 E0.01741
G1 X70.118 Y58.716 E0.01508
G1 X70.655 Y58.665 E0.01691
G1 X109.465 Y58.672 E1.21684
G1 X110.118 Y58.755 E0.02063
G1 X110.774 Y58.914 E0.02119
G1 X111.483 Y59.179 E0.02373
G1 X112.082 Y59.490 E0.02117
G1 X112.376 Y59.676 E0.01088
G1 X112.733 Y59.937 E0.01386
G1 X113.210 Y60.358 E0.01995
G1 X113.624 Y60.809 E0.01921
G1 X114.042 Y61.378 E0.02215
G1 X114.279 Y61.779 E0.01460
G1 X114.457 Y62.137 E0.01254
G1 X114.636 Y62.574 E0.01481
G1 X114.754 Y62.936 E0.01194
G1 X114.873 Y63.420 E0.01562
G1 X114.931 Y63.756 E0.01067
G1 X114.990 Y64.588 E0.02616
G1 X114.990 Y115.411 E1.59352
G1 X114.932 Y116.242 E0.02612
G1 X114.814 Y116.844 E0.01924
G1 X114.695 Y117.255 E0.01340
G1 X114.578 Y117.579 E0.01082
G1 X114.278 Y118.223 E0.02227
G1 X114.041 Y118.625 E0.01462
G1 X113.866 Y118.879 E0.00970
G1 X113.387 Y119.461 E0.02363
G1 X112.912 Y119.914 E0.02057
G1 X112.315 Y120.364 E0.02344
G1 X112.022 Y120.545 E0.01080
G1 X111.603 Y120.765 E0.01483
G1 X111.248 Y120.921 E0.01217
G1 X110.891 Y121.050 E0.01191
G1 X110.475 Y121.169 E0.01356
G1 X110.119 Y121.245 E0.01142
G1 X109.641 Y121.313 E0.01512
G1 X109.226 Y121.340 E0.01303
G1 X70.774 Y121.340 E1.20567
G1 X70.358 Y121.313 E0.01306
G1 X70.006 Y121.267 E0.01114
G1 X69.285 Y121.103 E0.02316
G1 X68.635 Y120.871 E0.02166
G1 X67.978 Y120.545 E0.02298
G1 X67.446 Y120.198 E0.01993
G1 X66.908 Y119.755 E0.02184
G1 X66.612 Y119.461 E0.01308
G1 X66.377 Y119.193 E0.01117
G1 X65.958 Y118.622 E0.02222
G1 X65.721 Y118.221 E0.01460
G1 X65.543 Y117.863 E0.01254
G1 X65.364 Y117.426 E0.01481
G1 X65.246 Y117.064 E0.01194
G1 X65.127 Y116.580 E0.01562
G1 X65.069 Y116.244 E0.01067
G1 X65.010 Y115.411 E0.02619
G1 X65.010 Y64.588 E1.59352
G1 X65.068 Y63.758 E0.02609
G1 X65.186 Y63.156 E0.01924
G1 X65.304 Y62.748 E0.01331
G1 X65.492 Y62.266 E0.01621
M204 S1250
G1 X65.912 Y62.168 F9000.000
G1 E-2.24000 F4200.00000
G1 F7200.000
G1 X65.781 Y61.672 E-0.36624
G1 X66.077 Y61.200 E-0.30872
G1 X66.339 Y60.862 E-0.23705
G1 E-0.04800 F4200.00000
G1 Z0.400 F9000.000
G1 X66.263 Y118.175
G1 Z0.200
G1 E3.20000 F2400.00000
M204 S800
G1 F1200.000
G1 X67.360 Y119.271 E0.04880
G1 X67.837 Y119.665 E0.01947
G1 X68.307 Y119.971 E0.01763
G1 X68.879 Y120.256 E0.02013
G1 X66.096 Y117.473 E0.12384
G1 X65.984 Y117.198 E0.00934
G1 X65.829 Y116.670 E0.01731
G1 X69.673 Y120.515 E0.17107
G1 X70.117 Y120.615 E0.01432
G1 X70.329 Y120.635 E0.00671
G1 X65.714 Y116.021 E0.20537
G1 X65.674 Y115.445 E0.01816
G1 X70.909 Y120.680 E0.23297
G1 X71.444 Y120.680 E0.01684
G1 X65.670 Y114.906 E0.25697
G1 X65.670 Y114.371 E0.01684
G1 X71.979 Y120.680 E0.28078
G1 X72.515 Y120.680 E0.01684
G1 X65.670 Y113.835 E0.30460
G1 X65.670 Y113.300 E0.01684
G1 X73.050 Y120.680 E0.32842
G1 X73.585 Y120.680 E0.01684
G1 X65.670 Y112.765 E0.35224
G1 X65.670 Y112.230 E0.01684
G1 X74.120 Y120.680 E0.37605
G1 X74.655 Y120.680 E0.01684
G1 X65.670 Y111.695 E0.39987
G1 X65.670 Y111.159 E0.01684
G1 X75.191 Y120.680 E0.42369
G1 X75.726 Y120.680 E0.01684
G1 X65.670 Y110.624 E0.44751
G1 X65.670 Y110.089 E0.01684
G1 X76.261 Y120.680 E0.47132
G1 X76.796 Y120.680 E0.01684
G1 X65.670 Y109.554 E0.49514
G1 X65.670 Y109.019 E0.01684
G1 X77.331 Y120.680 E0.51896
G1 X77.867 Y120.680 E0.01684
G1 X65.670 Y108.483 E0.54278
G1 X65.670 Y107.948 E0.01684
G1 X78.402 Y120.680 E0.56659
G1 X78.937 Y120.680 E0.01684
G1 X65.670 Y107.413 E0.59041
G1 X65.670 Y106.878 E0.01684
G1 X79.472 Y120.680 E0.61423
G1 X80.007 Y120.680 E0.01684
G1 X65.670 Y106.343 E0.63805
G1 X65.670 Y105.807 E0.01684
G1 X80.543 Y120.680 E0.66186
G1 X81.078 Y120.680 E0.01684
G1 X65.670 Y105.272 E0.68568
G1 X65.670 Y104.737 E0.01684
G1 X81.613 Y120.680 E0.70950
G1 X82.148 Y120.680 E0.01684
G1 X65.670 Y104.202 E0.73332
G1 X65.670 Y103.667 E0.01684
G1 X82.683 Y120.680 E0.75713
M73 P1 R62
G1 X83.219 Y120.680 E0.01684
G1 X65.670 Y103.131 E0.78095
G1 X65.670 Y102.596 E0.01684
G1 X83.754 Y120.680 E0.80477
G1 X84.289 Y120.680 E0.01684
G1 X65.670 Y102.061 E0.82859
G1 X65.670 Y101.526 E0.01684
G1 X84.824 Y120.680 E0.85240
G1 X85.359 Y120.680 E0.01684
G1 X65.670 Y100.991 E0.87622
G1 X65.670 Y100.455 E0.01684
G1 X85.895 Y120.680 E0.90004
G1 X86.430 Y120.680 E0.01684
G1 X65.670 Y99.920 E0.92385
G1 X65.670 Y99.385 E0.01684
G1 X86.965 Y120.680 E0.94767
G1 X87.500 Y120.680 E0.01684
G1 X65.670 Y98.850 E0.97149
G1 X65.670 Y98.315 E0.01684
G1 X88.035 Y120.680 E0.99531
G1 X88.571 Y120.680 E0.01684
G1 X65.670 Y97.779 E1.01912
G1 X65.670 Y97.244 E0.01684
G1 X89.106 Y120.680 E1.04294
G1 X89.641 Y120.680 E0.01684
G1 X65.670 Y96.709 E1.06676
G1 X65.670 Y96.174 E0.01684
G1 X90.176 Y120.680 E1.09058
G1 X90.711 Y120.680 E0.01684
G1 X65.670 Y95.639 E1.11439
G1 X65.670 Y95.103 E0.01684
G1 X91.247 Y120.680 E1.13821
G1 X91.782 Y120.680 E0.01684
G1 X65.670 Y94.568 E1.16203
G1 X65.670 Y94.033 E0.01684
G1 X92.317 Y120.680 E1.18585
G1 X92.852 Y120.680 E0.01684
G1 X65.670 Y93.498 E1.20966
G1 X65.670 Y92.963 E0.01684
G1 X93.387 Y120.680 E1.23348
G1 X93.923 Y120.680 E0.01684
G1 X65.670 Y92.427 E1.25730
G1 X65.670 Y91.892 E0.01684
G1 X94.458 Y120.680 E1.28112
G1 X94.993 Y120.680 E0.01684
G1 X65.670 Y91.357 E1.30493
G1 X65.670 Y90.822 E0.01684
G1 X95.528 Y120.680 E1.32875
G1 X96.063 Y120.680 E0.01684
G1 X65.670 Y90.287 E1.35257
G1 X65.670 Y89.751 E0.01684
G1 X96.599 Y120.680 E1.37639
G1 X97.134 Y120.680 E0.01684
G1 X65.670 Y89.216 E1.40020
G1 X65.670 Y88.681 E0.01684
G1 X97.669 Y120.680 E1.42402
G1 X98.204 Y120.680 E0.01684
G1 X65.670 Y88.146 E1.44784
G1 X65.670 Y87.611 E0.01684
G1 X98.739 Y120.680 E1.47166
G1 X99.275 Y120.680 E0.01684
G1 X65.670 Y87.075 E1.49547
G1 X65.670 Y86.540 E0.01684
G1 X99.810 Y120.680 E1.51929
G1 X100.345 Y120.680 E0.01684
G1 X65.670 Y86.005 E1.54311
M73 P3 R61
G1 X65.670 Y85.470 E0.01684
G1 X100.880 Y120.680 E1.56693
G1 X101.415 Y120.680 E0.01684
G1 X65.670 Y84.935 E1.59074
G1 X65.670 Y84.399 E0.01684
G1 X101.951 Y120.680 E1.61456
G1 X102.486 Y120.680 E0.01684
G1 X65.670 Y83.864 E1.63838
G1 X65.670 Y83.329 E0.01684
G1 X103.021 Y120.680 E1.66220
G1 X103.556 Y120.680 E0.01684
G1 X65.670 Y82.794 E1.68601
G1 X65.670 Y82.259 E0.01684
G1 X104.091 Y120.680 E1.70983
G1 X104.626 Y120.680 E0.01684
G1 X65.670 Y81.723 E1.73365
G1 X65.670 Y81.188 E0.01684
G1 X105.162 Y120.680 E1.75746
G1 X105.697 Y120.680 E0.01684
G1 X65.670 Y80.653 E1.78128
G1 X65.670 Y80.118 E0.01684
G1 X106.232 Y120.680 E1.80510
G1 X106.767 Y120.680 E0.01684
G1 X65.670 Y79.583 E1.82892
G1 X65.670 Y79.047 E0.01684
G1 X107.302 Y120.680 E1.85273
G1 X107.838 Y120.680 E0.01684
G1 X65.670 Y78.512 E1.87655
G1 X65.670 Y77.977 E0.01684
G1 X108.373 Y120.680 E1.90037
G1 X108.908 Y120.680 E0.01684
G1 X65.670 Y77.442 E1.92419
G1 X65.670 Y76.907 E0.01684
G1 X109.429 Y120.666 E1.94736
G1 X109.907 Y120.609 E0.01516
G1 X65.670 Y76.372 E1.96865
G1 X65.670 Y75.836 E0.01684
G1 X110.351 Y120.518 E1.98842
G1 X110.763 Y120.394 E0.01353
G1 X65.670 Y75.301 E2.00674
G1 X65.670 Y74.766 E0.01684
G1 X111.148 Y120.244 E2.02387
M73 P5 R60
G1 X111.508 Y120.069 E0.01260
G1 X65.670 Y74.231 E2.03991
G1 X65.670 Y73.696 E0.01684
G1 X111.850 Y119.876 E2.05510
G1 X112.162 Y119.653 E0.01208
G1 X65.670 Y73.160 E2.06901
G1 X65.670 Y72.625 E0.01684
G1 X112.468 Y119.423 E2.08260
G1 X112.743 Y119.163 E0.01191
G1 X65.670 Y72.090 E2.09486
G1 X65.670 Y71.555 E0.01684
G1 X113.004 Y118.888 E2.10644
G1 X113.245 Y118.595 E0.01196
G1 X65.670 Y71.020 E2.11720
G1 X65.670 Y70.484 E0.01684
G1 X113.472 Y118.287 E2.12730
G1 X113.672 Y117.951 E0.01229
G1 X65.670 Y69.949 E2.13619
G1 X65.670 Y69.414 E0.01684
G1 X113.845 Y117.589 E2.14390
G1 X114.007 Y117.216 E0.01280
G1 X65.670 Y68.879 E2.15111
G1 X65.670 Y68.344 E0.01684
G1 X114.137 Y116.810 E2.15687
G1 X114.234 Y116.372 E0.01412
G1 X65.670 Y67.808 E2.16119
G1 X65.670 Y67.273 E0.01684
G1 X114.294 Y115.898 E2.16389
G1 X114.329 Y115.397 E0.01578
G1 X65.670 Y66.738 E2.16545
G1 X65.670 Y66.203 E0.01684
G1 X114.330 Y114.863 E2.16548
G1 X114.330 Y114.328 E0.01684
G1 X65.670 Y65.668 E2.16548
G1 X65.670 Y65.132 E0.01684
G1 X114.330 Y113.793 E2.16548
M73 P6 R59
G1 X114.330 Y113.257 E0.01684
G1 X65.671 Y64.598 E2.16544
G1 X65.706 Y64.098 E0.01577
G1 X114.330 Y112.722 E2.16387
G1 X114.330 Y112.187 E0.01684
G1 X65.767 Y63.624 E2.16115
G1 X65.864 Y63.186 E0.01411
G1 X114.330 Y111.652 E2.15682
G1 X114.330 Y111.117 E0.01684
G1 X65.998 Y62.785 E2.15087
G1 X66.149 Y62.400 E0.01299
G1 X114.330 Y110.581 E2.14415
G1 X114.330 Y110.046 E0.01684
G1 X66.330 Y62.046 E2.13609
G1 X66.533 Y61.714 E0.01225
G1 X114.330 Y109.511 E2.12705
G1 X114.330 Y108.976 E0.01684
G1 X66.756 Y61.402 E2.11715
G1 X66.995 Y61.105 E0.01198
G1 X114.330 Y108.441 E2.10651
G1 X114.330 Y107.905 E0.01684
G1 X67.254 Y60.829 E2.09500
G1 X67.536 Y60.576 E0.01193
G1 X114.330 Y107.370 E2.08241
G1 X114.330 Y106.835 E0.01684
G1 X67.837 Y60.342 E2.06902
G1 X68.155 Y60.125 E0.01212
G1 X114.330 Y106.300 E2.05488
G1 X114.330 Y105.765 E0.01684
G1 X68.493 Y59.927 E2.03986
G1 X68.855 Y59.754 E0.01264
G1 X114.330 Y105.229 E2.02373
G1 X114.330 Y104.694 E0.01684
G1 X69.241 Y59.605 E2.00654
G1 X69.656 Y59.484 E0.01358
G1 X114.330 Y104.159 E1.98811
M73 P8 R58
G1 X114.330 Y103.624 E0.01684
G1 X70.097 Y59.391 E1.96844
G1 X70.577 Y59.335 E0.01519
G1 X114.330 Y103.089 E1.94711
G1 X114.330 Y102.553 E0.01684
G1 X71.101 Y59.325 E1.92377
G1 X71.637 Y59.325 E0.01684
G1 X114.330 Y102.018 E1.89995
G1 X114.330 Y101.483 E0.01684
G1 X72.172 Y59.325 E1.87612
G1 X72.707 Y59.325 E0.01684
G1 X114.330 Y100.948 E1.85230
G1 X114.330 Y100.413 E0.01684
G1 X73.243 Y59.325 E1.82848
G1 X73.778 Y59.325 E0.01684
G1 X114.330 Y99.877 E1.80466
G1 X114.330 Y99.342 E0.01684
G1 X74.313 Y59.325 E1.78084
G1 X74.848 Y59.325 E0.01684
G1 X114.330 Y98.807 E1.75701
G1 X114.330 Y98.272 E0.01684
G1 X75.384 Y59.325 E1.73319
G1 X75.919 Y59.326 E0.01684
G1 X114.330 Y97.737 E1.70937
G1 X114.330 Y97.201 E0.01684
G1 X76.454 Y59.326 E1.68555
G1 X76.990 Y59.326 E0.01684
G1 X114.330 Y96.666 E1.66172
G1 X114.330 Y96.131 E0.01684
G1 X77.525 Y59.326 E1.63790
G1 X78.060 Y59.326 E0.01684
G1 X114.330 Y95.596 E1.61408
G1 X114.330 Y95.061 E0.01684
G1 X78.596 Y59.326 E1.59026
G1 X79.131 Y59.326 E0.01684
G1 X114.330 Y94.525 E1.56643
G1 X114.330 Y93.990 E0.01684
G1 X79.666 Y59.326 E1.54261
G1 X80.202 Y59.326 E0.01684
G1 X114.330 Y93.455 E1.51879
G1 X114.330 Y92.920 E0.01684
G1 X80.737 Y59.327 E1.49497
G1 X81.272 Y59.327 E0.01684
G1 X114.330 Y92.385 E1.47115
M73 P9 R57
G1 X114.330 Y91.849 E0.01684
G1 X81.807 Y59.327 E1.44732
G1 X82.343 Y59.327 E0.01684
G1 X114.330 Y91.314 E1.42350
G1 X114.330 Y90.779 E0.01684
G1 X82.878 Y59.327 E1.39968
G1 X83.413 Y59.327 E0.01684
G1 X114.330 Y90.244 E1.37586
G1 X114.330 Y89.709 E0.01684
G1 X83.949 Y59.327 E1.35203
G1 X84.484 Y59.327 E0.01684
G1 X114.330 Y89.173 E1.32821
