; generated by PrusaSlicer 2.2.0+win64 on 2020-05-08 at 11:37:29 UTC


;
;

;
;
; 

; external perimeters extrusion width = 0.45mm
; perimeters extrusion width = 0.45mm
; infill extrusion width = 0.45mm
; solid infill extrusion width = 0.45mm
; top infill extrusion width = 0.40mm
; first layer extrusion width = 0.42mm

M73 P0 R39
M201 X1250 Y1250 Z400 E5000 ; sets maximum accelerations, mm/sec^2
M203 X180 Y180 Z12 E80 ; sets maximum feedrates, mm/sec
M204 P1250 R1250 T1250 ; sets acceleration (P, T) and retract acceleration (R), mm/sec^2
M205 X8.00 Y8.00 Z2.00 E10.00 ; sets the jerk limits, mm/sec
M205 S0 T0 ; sets the minimum extruding and travel feed rate, mm/sec
M107
G90 ; use absolute coordinates
M83 ; extruder relative mode
M104 S170 ; set extruder temp for bed leveling
M140 S85 ; set bed temp
M109 R170 ; wait for bed leveling temp
M190 S85 ; wait for bed temp
G28 ; home all without mesh bed level
G29 ; mesh bed leveling 
M104 S230 ; set extruder temp
G92 E0.0
G1 Y-2.0 X179 F2400
G1 Z3 F720
M109 S230 ; wait for extruder temp

; intro line
G1 X170 F1000
G1 Z0.2 F720
G1 X110.0 E8.0 F900
M73 P0 R39
G1 X40.0 E10.0 F700
G92 E0.0

M221 S95 ; set flow
G21 ; set units to millimeters
G90 ; use absolute coordinates
M83 ; use relative distances for extrusion
M900 K0.2 ; Filament gcode
;BEFORE_LAYER_CHANGE
G92 E0.0
;0.2


G1 Z0.200 F9000.000
;AFTER_LAYER_CHANGE
;0.2
G1 E-3.20000 F2400.00000
G1 Z0.400 F9000.000
G1 X70.712 Y64.354
G1 Z0.200
G1 E3.20000 F1500.00000
M204 S800
G1 F1200.000
G1 X71.949 Y63.340 E0.05013
G1 X72.715 Y62.909 E0.02756
G1 X73.451 Y62.605 E0.02496
G1 X75.047 Y62.253 E0.05126
G1 X104.432 Y62.223 E0.92134
G1 X105.677 Y62.363 E0.03928
G1 X106.905 Y62.740 E0.04028
G1 X108.051 Y63.341 E0.04058
G1 X109.055 Y64.125 E0.03994
G1 X109.906 Y65.074 E0.03997
G1 X110.602 Y66.195 E0.04137
G1 X111.087 Y67.401 E0.04075
G1 X111.367 Y68.695 E0.04152
G1 X111.427 Y69.648 E0.02995
G1 X111.426 Y110.401 E1.27777
G1 X111.360 Y111.352 E0.02990
G1 X111.151 Y112.383 E0.03298
G1 X110.808 Y113.362 E0.03253
G1 X110.336 Y114.286 E0.03253
G1 X109.884 Y114.955 E0.02532
G1 X109.270 Y115.665 E0.02942
G1 X108.582 Y116.280 E0.02892
G1 X107.929 Y116.737 E0.02501
G1 X107.241 Y117.112 E0.02457
G1 X106.401 Y117.445 E0.02831
G1 X105.549 Y117.662 E0.02758
G1 X104.773 Y117.762 E0.02454
G1 X75.503 Y117.776 E0.91772
G1 X74.631 Y117.693 E0.02748
G1 X73.807 Y117.509 E0.02647
G1 X73.003 Y117.222 E0.02677
G1 X72.169 Y116.796 E0.02938
G1 X71.432 Y116.291 E0.02798
G1 X70.717 Y115.652 E0.03008
G1 X70.091 Y114.922 E0.03016
G1 X69.551 Y114.091 E0.03107
G1 X69.131 Y113.216 E0.03043
G1 X68.842 Y112.357 E0.02839
G1 X68.641 Y111.365 E0.03174
G1 X68.576 Y110.465 E0.02831
G1 X68.574 Y69.594 E1.28146
G1 X68.643 Y68.620 E0.03063
G1 X68.849 Y67.617 E0.03210
G1 X69.191 Y66.639 E0.03248
G1 X69.664 Y65.714 E0.03258
G1 X70.676 Y64.401 E0.05196
M204 S1250
G1 E-2.24000 F2400.00000
G1 F7200.000
G1 X71.949 Y63.340 E-0.52484
G1 X72.715 Y62.909 E-0.27838
G1 X73.032 Y62.778 E-0.10877
G1 E-0.04800 F2400.00000
G1 Z0.400 F9000.000
G1 X68.908 Y62.873
G1 Z0.200
G1 E3.20000 F1500.00000
M204 S800
G1 F1200.000
G1 X69.026 Y62.736 E0.00567
G1 X69.845 Y61.986 E0.03481
G1 X70.747 Y61.336 E0.03485
G1 X71.699 Y60.805 E0.03420
G1 X72.711 Y60.388 E0.03431
G1 X73.843 Y60.077 E0.03682
G1 X74.893 Y59.920 E0.03327
G1 X104.709 Y59.894 E0.93486
G1 X105.510 Y59.966 E0.02521
G1 X106.356 Y60.120 E0.02699
G1 X107.148 Y60.341 E0.02576
G1 X107.927 Y60.635 E0.02612
G1 X108.679 Y60.999 E0.02618
G1 X109.383 Y61.419 E0.02571
G1 X110.069 Y61.917 E0.02658
G1 X110.700 Y62.466 E0.02623
G1 X111.283 Y63.070 E0.02632
G1 X111.821 Y63.734 E0.02679
G1 X112.291 Y64.432 E0.02638
G1 X112.702 Y65.172 E0.02654
G1 X113.055 Y65.960 E0.02706
G1 X113.339 Y66.776 E0.02709
G1 X113.533 Y67.530 E0.02443
G1 X113.687 Y68.422 E0.02836
G1 X113.763 Y69.579 E0.03638
G1 X113.763 Y110.428 E1.28076
G1 X113.663 Y111.757 E0.04180
G1 X113.393 Y113.044 E0.04123
G1 X113.192 Y113.675 E0.02078
G1 X112.949 Y114.298 E0.02095
G1 X112.656 Y114.919 E0.02152
G1 X112.349 Y115.475 E0.01992
G1 X111.706 Y116.418 E0.03579
G1 X110.945 Y117.294 E0.03638
G1 X110.100 Y118.058 E0.03570
G1 X109.161 Y118.722 E0.03608
G1 X108.149 Y119.266 E0.03602
G1 X107.088 Y119.678 E0.03570
G1 X106.011 Y119.953 E0.03485
G1 X104.890 Y120.096 E0.03543
G1 X75.463 Y120.113 E0.92264
G1 X74.303 Y120.007 E0.03652
G1 X73.160 Y119.754 E0.03672
G1 X72.060 Y119.359 E0.03666
G1 X71.011 Y118.826 E0.03687
G1 X69.891 Y118.050 E0.04273
G1 X68.893 Y117.124 E0.04269
G1 X68.467 Y116.636 E0.02031
G1 X68.084 Y116.136 E0.01975
G1 X67.485 Y115.186 E0.03521
G1 X66.932 Y114.008 E0.04079
G1 X66.549 Y112.818 E0.03921
G1 X66.330 Y111.708 E0.03546
G1 X66.243 Y110.599 E0.03489
G1 X66.237 Y69.572 E1.28638
G1 X66.337 Y68.243 E0.04178
G1 X66.607 Y66.956 E0.04122
G1 X66.808 Y66.325 E0.02077
G1 X67.051 Y65.703 E0.02095
G1 X67.343 Y65.083 E0.02147
G1 X67.650 Y64.526 E0.01995
G1 X68.290 Y63.588 E0.03560
G1 X68.869 Y62.918 E0.02775
M204 S1250
G1 E-2.24000 F2400.00000
G1 F7200.000
G1 X69.026 Y62.736 E-0.07630
G1 X69.845 Y61.986 E-0.35154
G1 X70.747 Y61.336 E-0.35193
G1 X71.111 Y61.133 E-0.13223
G1 E-0.04800 F2400.00000
G1 Z0.400 F9000.000
G1 X74.934 Y60.295
G1 Z0.200
G1 E3.20000 F1500.00000
M204 S800
G1 F1200.000
G1 X104.684 Y60.271 E0.93277
G1 X105.451 Y60.339 E0.02414
G1 X106.264 Y60.486 E0.02591
G1 X107.023 Y60.697 E0.02470
G1 X107.771 Y60.978 E0.02506
G1 X108.493 Y61.327 E0.02512
G1 X109.182 Y61.738 E0.02517
G1 X109.840 Y62.217 E0.02553
G1 X110.447 Y62.745 E0.02519
G1 X111.006 Y63.326 E0.02528
G1 X111.523 Y63.965 E0.02577
G1 X111.974 Y64.635 E0.02535
G1 X112.368 Y65.347 E0.02552
G1 X112.708 Y66.106 E0.02605
G1 X112.981 Y66.892 E0.02609
G1 X113.163 Y67.602 E0.02299
G1 X113.314 Y68.476 E0.02781
G1 X113.386 Y69.586 E0.03487
G1 X113.386 Y110.421 E1.28035
G1 X113.292 Y111.692 E0.03997
G1 X113.031 Y112.939 E0.03993
G1 X112.838 Y113.544 E0.01992
G1 X112.605 Y114.143 E0.02016
G1 X112.318 Y114.753 E0.02112
G1 X112.023 Y115.284 E0.01906
G1 X111.401 Y116.196 E0.03461
G1 X110.668 Y117.037 E0.03498
G1 X109.856 Y117.770 E0.03429
G1 X108.953 Y118.407 E0.03466
G1 X107.981 Y118.928 E0.03457
G1 X106.962 Y119.323 E0.03426
G1 X105.929 Y119.584 E0.03341
G1 X104.854 Y119.720 E0.03398
G1 X75.472 Y119.736 E0.92126
G1 X74.350 Y119.632 E0.03532
G1 X73.254 Y119.388 E0.03522
G1 X72.199 Y119.008 E0.03516
G1 X71.194 Y118.496 E0.03536
G1 X70.117 Y117.748 E0.04111
G1 X69.157 Y116.855 E0.04111
G1 X68.755 Y116.393 E0.01919
G1 X68.389 Y115.914 E0.01891
G1 X67.811 Y114.995 E0.03404
G1 X67.279 Y113.860 E0.03931
G1 X66.911 Y112.714 E0.03773
G1 X66.702 Y111.647 E0.03408
G1 X66.619 Y110.577 E0.03364
G1 X66.614 Y69.579 E1.28548
G1 X66.708 Y68.308 E0.03995
G1 X66.969 Y67.061 E0.03993
G1 X67.162 Y66.456 E0.01991
G1 X67.395 Y65.857 E0.02016
G1 X67.681 Y65.249 E0.02107
G1 X67.976 Y64.716 E0.01909
G1 X68.595 Y63.809 E0.03443
G1 X69.304 Y62.991 E0.03394
G1 X70.091 Y62.272 E0.03343
G1 X70.958 Y61.649 E0.03346
G1 X71.873 Y61.140 E0.03283
G1 X72.843 Y60.742 E0.03290
G1 X73.932 Y60.444 E0.03538
G1 X74.875 Y60.304 E0.02991
M204 S1250
G1 X74.930 Y60.677 F9000.000
M204 S800
G1 F1200.000
G1 X104.659 Y60.647 E0.93214
G1 X105.392 Y60.711 E0.02307
G1 X106.188 Y60.856 E0.02536
G1 X106.913 Y61.058 E0.02362
G1 X107.630 Y61.328 E0.02401
G1 X108.321 Y61.662 E0.02406
G1 X108.981 Y62.058 E0.02412
G1 X109.612 Y62.517 E0.02447
G1 X110.192 Y63.023 E0.02416
G1 X110.728 Y63.581 E0.02424
G1 X111.224 Y64.195 E0.02475
G1 X111.656 Y64.839 E0.02431
G1 X112.034 Y65.523 E0.02451
G1 X112.360 Y66.252 E0.02504
G1 X112.622 Y67.008 E0.02508
G1 X112.793 Y67.673 E0.02155
G1 X112.940 Y68.530 E0.02725
G1 X113.009 Y69.592 E0.03336
G1 X113.009 Y110.413 E1.27994
G1 X112.917 Y111.651 E0.03892
G1 X112.669 Y112.833 E0.03787
G1 X112.484 Y113.413 E0.01906
G1 X112.256 Y114.000 E0.01976
G1 X111.980 Y114.586 E0.02031
G1 X111.698 Y115.094 E0.01820
G1 X111.096 Y115.974 E0.03343
G1 X110.391 Y116.780 E0.03359
G1 X109.612 Y117.482 E0.03287
G1 X108.745 Y118.092 E0.03323
G1 X107.814 Y118.590 E0.03313
G1 X106.837 Y118.967 E0.03281
G1 X105.849 Y119.216 E0.03197
G1 X104.819 Y119.344 E0.03253
G1 X75.481 Y119.359 E0.91989
G1 X74.398 Y119.258 E0.03411
G1 X73.348 Y119.023 E0.03372
G1 X72.338 Y118.658 E0.03366
G1 X71.377 Y118.166 E0.03385
G1 X70.344 Y117.447 E0.03948
G1 X69.435 Y116.600 E0.03894
G1 X69.044 Y116.150 E0.01869
G1 X68.694 Y115.692 E0.01807
G1 X68.136 Y114.804 E0.03288
G1 X67.626 Y113.711 E0.03783
G1 X67.274 Y112.610 E0.03626
G1 X67.074 Y111.586 E0.03271
G1 X66.996 Y110.556 E0.03238
G1 X66.991 Y69.586 E1.28459
G1 X67.083 Y68.349 E0.03890
G1 X67.331 Y67.167 E0.03787
G1 X67.516 Y66.587 E0.01906
G1 X67.739 Y66.012 E0.01935
G1 X68.020 Y65.416 E0.02066
G1 X68.302 Y64.907 E0.01823
G1 X68.888 Y64.048 E0.03261
G1 X69.567 Y63.262 E0.03258
G1 X70.320 Y62.571 E0.03204
G1 X71.151 Y61.973 E0.03209
G1 X72.027 Y61.485 E0.03143
G1 X72.976 Y61.095 E0.03217
G1 X74.020 Y60.811 E0.03392
G1 X74.871 Y60.685 E0.02697
M204 S1250
G1 X74.925 Y61.058 F9000.000
M204 S800
G1 F1200.000
G1 X75.017 Y61.045 E0.00290
G1 X104.635 Y61.023 E0.92867
G1 X105.334 Y61.084 E0.02200
G1 X106.096 Y61.221 E0.02426
G1 X106.789 Y61.414 E0.02256
G1 X107.473 Y61.671 E0.02294
G1 X108.149 Y61.998 E0.02352
G1 X108.779 Y62.376 E0.02305
G1 X109.382 Y62.817 E0.02341
G1 X109.938 Y63.302 E0.02313
G1 X110.440 Y63.824 E0.02271
G1 X110.925 Y64.425 E0.02423
G1 X111.338 Y65.042 E0.02327
G1 X111.700 Y65.698 E0.02349
G1 X112.012 Y66.398 E0.02403
G1 X112.259 Y67.110 E0.02361
G1 X112.423 Y67.745 E0.02058
G1 X112.567 Y68.584 E0.02669
G1 X112.632 Y69.598 E0.03185
G1 X112.632 Y110.407 E1.27954
G1 X112.545 Y111.587 E0.03710
G1 X112.306 Y112.729 E0.03658
G1 X112.131 Y113.282 E0.01820
G1 X111.912 Y113.845 E0.01895
G1 X111.641 Y114.420 E0.01990
G1 X111.373 Y114.903 E0.01734
G1 X110.804 Y115.734 E0.03158
G1 X110.130 Y116.508 E0.03218
G1 X109.385 Y117.181 E0.03145
G1 X108.557 Y117.765 E0.03180
G1 X107.667 Y118.242 E0.03166
G1 X106.713 Y118.611 E0.03207
G1 X105.768 Y118.847 E0.03052
G1 X104.785 Y118.969 E0.03108
G1 X75.489 Y118.982 E0.91854
G1 X74.468 Y118.887 E0.03217
G1 X73.465 Y118.664 E0.03221
G1 X72.478 Y118.307 E0.03290
G1 X71.561 Y117.837 E0.03232
G1 X70.571 Y117.145 E0.03786
G1 X69.700 Y116.331 E0.03737
G1 X69.333 Y115.908 E0.01759
G1 X69.000 Y115.470 E0.01723
G1 X68.462 Y114.614 E0.03171
G1 X67.973 Y113.563 E0.03634
G1 X67.637 Y112.506 E0.03478
G1 X67.447 Y111.525 E0.03133
G1 X67.372 Y110.535 E0.03114
G1 X67.368 Y69.592 E1.28371
G1 X67.455 Y68.413 E0.03707
G1 X67.694 Y67.271 E0.03658
G1 X67.869 Y66.718 E0.01820
G1 X68.088 Y66.155 E0.01896
G1 X68.358 Y65.582 E0.01984
G1 X68.627 Y65.098 E0.01737
G1 X69.193 Y64.270 E0.03144
G1 X69.845 Y63.517 E0.03122
G1 X70.567 Y62.857 E0.03067
G1 X71.362 Y62.286 E0.03070
G1 X72.200 Y61.820 E0.03006
G1 X73.108 Y61.448 E0.03075
G1 X74.107 Y61.178 E0.03247
G1 X74.866 Y61.067 E0.02404
M204 S1250
G1 X74.920 Y61.440 F9000.000
M204 S800
G1 F1200.000
G1 X75.057 Y61.420 E0.00435
G1 X104.611 Y61.400 E0.92665
G1 X105.276 Y61.457 E0.02093
G1 X106.003 Y61.587 E0.02316
G1 X106.680 Y61.775 E0.02201
G1 X107.332 Y62.021 E0.02187
G1 X107.976 Y62.334 E0.02245
G1 X108.577 Y62.695 E0.02199
G1 X109.153 Y63.116 E0.02236
G1 X109.684 Y63.580 E0.02210
G1 X110.152 Y64.068 E0.02119
G1 X110.617 Y64.642 E0.02319
G1 X111.020 Y65.245 E0.02274
G1 X111.366 Y65.872 E0.02246
G1 X111.664 Y66.544 E0.02303
G1 X111.895 Y67.211 E0.02216
G1 X112.052 Y67.817 E0.01961
G1 X112.194 Y68.638 E0.02612
G1 X112.255 Y69.604 E0.03033
G1 X112.255 Y110.400 E1.27914
M73 P2 R38
G1 X112.173 Y111.522 E0.03528
G1 X111.944 Y112.624 E0.03529
G1 X111.777 Y113.151 E0.01733
G1 X111.563 Y113.703 E0.01855
G1 X111.303 Y114.253 E0.01908
G1 X111.048 Y114.712 E0.01648
G1 X110.499 Y115.512 E0.03041
G1 X109.854 Y116.252 E0.03079
G1 X109.142 Y116.893 E0.03003
G1 X108.350 Y117.450 E0.03037
G1 X107.500 Y117.904 E0.03021
G1 X106.588 Y118.254 E0.03061
G1 X105.689 Y118.478 E0.02907
G1 X104.750 Y118.593 E0.02964
G1 X75.498 Y118.605 E0.91719
G1 X74.515 Y118.513 E0.03096
G1 X73.559 Y118.299 E0.03070
G1 X72.618 Y117.957 E0.03139
G1 X71.745 Y117.508 E0.03080
G1 X70.798 Y116.844 E0.03624
G1 X69.966 Y116.063 E0.03580
G1 X69.622 Y115.666 E0.01648
G1 X69.305 Y115.249 E0.01641
G1 X68.788 Y114.424 E0.03053
G1 X68.320 Y113.416 E0.03485
G1 X68.000 Y112.403 E0.03330
G1 X67.819 Y111.465 E0.02996
G1 X67.749 Y110.514 E0.02989
G1 X67.745 Y69.599 E1.28285
G1 X67.827 Y68.478 E0.03526
G1 X68.056 Y67.376 E0.03529
G1 X68.223 Y66.849 E0.01734
G1 X68.432 Y66.309 E0.01814
G1 X68.696 Y65.749 E0.01943
G1 X68.952 Y65.289 E0.01650
G1 X69.498 Y64.492 E0.03028
G1 X70.122 Y63.773 E0.02986
G1 X70.812 Y63.143 E0.02929
G1 X71.572 Y62.599 E0.02932
G1 X72.373 Y62.155 E0.02869
G1 X73.239 Y61.802 E0.02933
G1 X74.194 Y61.545 E0.03102
G1 X74.860 Y61.448 E0.02111
M204 S1250
G1 X74.914 Y61.821 F9000.000
M204 S800
G1 F1200.000
G1 X75.097 Y61.795 E0.00581
G1 X104.588 Y61.776 E0.92465
G1 X105.219 Y61.829 E0.01987
G1 X105.911 Y61.953 E0.02206
G1 X106.555 Y62.131 E0.02093
G1 X107.176 Y62.364 E0.02080
G1 X107.790 Y62.661 E0.02139
G1 X108.362 Y63.005 E0.02093
G1 X108.911 Y63.406 E0.02132
G1 X109.418 Y63.848 E0.02107
G1 X109.864 Y64.311 E0.02018
G1 X110.308 Y64.860 E0.02214
G1 X110.694 Y65.434 E0.02170
G1 X111.025 Y66.033 E0.02145
G1 X111.311 Y66.675 E0.02203
G1 X111.532 Y67.314 E0.02120
G1 X111.682 Y67.889 E0.01863
G1 X111.820 Y68.692 E0.02555
G1 X111.878 Y69.609 E0.02882
G1 X111.878 Y110.393 E1.27874
G1 X111.798 Y111.482 E0.03424
G1 X111.581 Y112.520 E0.03324
G1 X111.423 Y113.021 E0.01647
G1 X111.219 Y113.548 E0.01772
G1 X110.965 Y114.086 E0.01866
G1 X110.722 Y114.521 E0.01561
G1 X110.195 Y115.289 E0.02923
G1 X109.578 Y115.995 E0.02939
G1 X108.898 Y116.604 E0.02862
G1 X108.142 Y117.135 E0.02896
G1 X107.354 Y117.556 E0.02804
G1 X106.464 Y117.898 E0.02987
G1 X105.610 Y118.110 E0.02760
G1 X104.717 Y118.217 E0.02821
G1 X75.507 Y118.228 E0.91586
G1 X74.585 Y118.142 E0.02901
G1 X73.654 Y117.934 E0.02993
G1 X72.759 Y117.607 E0.02986
G1 X71.929 Y117.178 E0.02929
G1 X71.046 Y116.560 E0.03380
G1 X70.244 Y115.809 E0.03446
G1 X69.918 Y115.433 E0.01560
G1 X69.610 Y115.028 E0.01595
G1 X69.114 Y114.234 E0.02935
G1 X68.667 Y113.269 E0.03336
G1 X68.363 Y112.300 E0.03182
G1 X68.191 Y111.405 E0.02858
G1 X68.125 Y110.494 E0.02865
G1 X68.122 Y69.606 E1.28199
G1 X68.202 Y68.518 E0.03421
G1 X68.419 Y67.480 E0.03323
G1 X68.577 Y66.979 E0.01648
G1 X68.781 Y66.452 E0.01773
G1 X69.035 Y65.916 E0.01860
G1 X69.277 Y65.480 E0.01563
G1 X69.802 Y64.714 E0.02912
G1 X70.399 Y64.029 E0.02849
G1 X71.058 Y63.430 E0.02792
G1 X71.783 Y62.912 E0.02793
G1 X72.545 Y62.491 E0.02732
G1 X73.370 Y62.156 E0.02790
G1 X74.280 Y61.912 E0.02956
G1 X74.854 Y61.830 E0.01818
M204 S1250
G1 X75.176 Y62.546 F9000.000
M204 S800
G1 F1200.000
G1 X104.541 Y62.529 E0.92074
G1 X105.105 Y62.575 E0.01775
G1 X105.729 Y62.685 E0.01985
G1 X106.307 Y62.843 E0.01879
G1 X106.864 Y63.051 E0.01865
G1 X107.418 Y63.318 E0.01926
G1 X107.933 Y63.625 E0.01880
G1 X108.429 Y63.986 E0.01924
G1 X108.887 Y64.383 E0.01901
G1 X109.289 Y64.800 E0.01816
G1 X109.693 Y65.296 E0.02005
G1 X110.043 Y65.814 E0.01962
G1 X110.343 Y66.356 E0.01942
G1 X110.604 Y66.939 E0.02001
G1 X110.807 Y67.520 E0.01930
G1 X110.942 Y68.033 E0.01665
G1 X111.071 Y68.780 E0.02375
G1 X111.124 Y69.621 E0.02643
G1 X111.124 Y110.380 E1.27795
G1 X111.054 Y111.354 E0.03062
G1 X110.856 Y112.312 E0.03067
G1 X110.715 Y112.760 E0.01474
G1 X110.526 Y113.250 E0.01647
G1 X110.289 Y113.752 E0.01739
G1 X110.073 Y114.137 E0.01386
G1 X109.599 Y114.827 E0.02622
G1 X109.042 Y115.464 E0.02656
G1 X108.413 Y116.027 E0.02647
G1 X107.729 Y116.503 E0.02613
G1 X107.061 Y116.861 E0.02377
G1 X106.238 Y117.179 E0.02763
G1 X105.453 Y117.372 E0.02537
G1 X104.650 Y117.466 E0.02533
G1 X75.524 Y117.474 E0.91323
G1 X74.681 Y117.394 E0.02657
G1 X73.845 Y117.204 E0.02688
G1 X73.043 Y116.908 E0.02681
G1 X72.300 Y116.521 E0.02627
G1 X71.522 Y115.975 E0.02979
G1 X70.801 Y115.299 E0.03099
G1 X70.511 Y114.966 E0.01384
G1 X70.221 Y114.585 E0.01501
G1 X69.767 Y113.856 E0.02696
G1 X69.363 Y112.976 E0.03035
G1 X69.089 Y112.097 E0.02886
G1 X68.937 Y111.287 E0.02584
G1 X68.879 Y110.454 E0.02618
